icons/src/scalable/emblems/desktop-symbolic.svg

<?xml version="1.0" encoding="UTF-8" standalone="no"?>
<svg
   height="16"
   width="16"
   version="1.1"
   id="svg10"
   sodipodi:docname="desktop-symbolic.svg"
   inkscape:version="1.1 (c68e22c387, 2021-05-23)"
   xmlns:inkscape="http://www.inkscape.org/namespaces/inkscape"
   xmlns:sodipodi="http://sodipodi.sourceforge.net/DTD/sodipodi-0.dtd"
   xmlns="http://www.w3.org/2000/svg"
   xmlns:svg="http://www.w3.org/2000/svg">
  <defs
     id="defs14" />
  <sodipodi:namedview
     id="namedview12"
     pagecolor="#ffffff"
     bordercolor="#666666"
     borderopacity="1.0"
     inkscape:pageshadow="2"
     inkscape:pageopacity="0.0"
     inkscape:pagecheckerboard="0"
     showgrid="true"
     inkscape:zoom="33.249999"
     inkscape:cx="7.9097747"
     inkscape:cy="16.195489"
     inkscape:window-width="1366"
     inkscape:window-height="704"
     inkscape:window-x="0"
     inkscape:window-y="27"
     inkscape:window-maximized="1"
     inkscape:current-layer="svg10">
    <inkscape:grid
       type="xygrid"
       id="grid1010" />
  </sodipodi:namedview>
  <g
     transform="translate(-312,-119)"
     fill="#808080"
     id="g8">
    <path
       id="path2"
       style="line-height:normal;font-variant-ligatures:normal;font-variant-position:normal;font-variant-caps:normal;font-variant-numeric:normal;font-variant-alternates:normal;font-feature-settings:normal;text-indent:0;text-align:start;text-decoration-line:none;text-decoration-style:solid;text-decoration-color:#000000;text-transform:none;text-orientation:mixed;shape-padding:0;isolation:auto;mix-blend-mode:normal;marker:none"
       d="M 3.9941406 1 C 2.7361406 1.015 1.8155 0.96976577 1.0625 1.3847656 C 0.67314739 1.6069147 0.37598639 1.9608757 0.22460938 2.3828125 C 0.05960934 2.8208125 2.220446e-16 3.343 0 4 L 0 10 C 0 10.658 0.05960934 11.179184 0.22460938 11.617188 C 0.38860936 12.056183 0.6865 12.407234 1.0625 12.615234 C 1.8155 13.031234 2.7361406 12.985 3.9941406 13 L 12.005859 13 C 13.263859 12.985 14.1845 13.03023 14.9375 12.615234 C 15.326853 12.393085 15.624014 12.039122 15.775391 11.617188 C 15.939391 11.179187 16 10.657 16 10 L 16 4 C 16 3.342 15.940391 2.8208125 15.775391 2.3828125 C 15.624014 1.9608756 15.326853 1.6069146 14.9375 1.3847656 C 14.1845 0.96876582 13.263859 1.015 12.005859 1 L 3.9980469 1 L 3.9941406 1 z M 4 2 L 12 2 C 13.259 2.015 14.087125 2.059719 14.453125 2.2617188 C 14.637125 2.3617183 14.742844 2.474375 14.839844 2.734375 C 14.936844 2.994375 15 3.408 15 4 L 15 10 C 15 10.592 14.93684 11.005625 14.839844 11.265625 C 14.741844 11.525625 14.637125 11.637281 14.453125 11.738281 C 14.087125 11.940281 13.259 11.985 12 12 L 4 12 C 2.741 11.985 1.9099219 11.94028 1.5449219 11.738281 C 1.3619219 11.638281 1.2581564 11.525625 1.1601562 11.265625 C 1.0631564 11.005625 1 10.592 1 10 L 1 4 C 1 3.408 1.0631566 2.994375 1.1601562 2.734375 C 1.2581563 2.474375 1.3619219 2.3627187 1.5449219 2.2617188 C 1.9109219 2.0597188 2.741 2.015 4 2 z M 4 14 C 2.892 14 2 14.892 2 16 L 3 16 L 5 16 L 14 16 C 14 14.892 13.108 14 12 14 L 4 14 z "
       transform="translate(312,119)" />
  </g>
</svg>

<svg version="1.1" viewBox="0 0 16 16" xmlns="http://www.w3.org/2000/svg">
 <path d="m3.9941 1c-1.258 0.015-2.1786-0.030234-2.9316 0.38477-0.38935 0.22215-0.68651 0.57611-0.83789 0.99805-0.165 0.438-0.22461 0.96019-0.22461 1.6172v6c0 0.658 0.059609 1.1792 0.22461 1.6172 0.164 0.439 0.46189 0.79005 0.83789 0.99805 0.753 0.416 1.6736 0.36977 2.9316 0.38477h8.0117c1.258-0.015 2.1786 0.03023 2.9316-0.38477 0.38935-0.22215 0.68651-0.57611 0.83789-0.99805 0.164-0.438 0.22461-0.96019 0.22461-1.6172v-6c0-0.658-0.05961-1.1792-0.22461-1.6172-0.15138-0.42194-0.44854-0.7759-0.83789-0.99805-0.753-0.416-1.6736-0.36977-2.9316-0.38477h-8.0078zm0.00586 1h8c1.259 0.015 2.0871 0.059719 2.4531 0.26172 0.184 0.1 0.28972 0.21266 0.38672 0.47266s0.16016 0.67362 0.16016 1.2656v6c0 0.592-0.06316 1.0056-0.16016 1.2656-0.098 0.26-0.20272 0.37166-0.38672 0.47266-0.366 0.202-1.1941 0.24672-2.4531 0.26172h-8c-1.259-0.015-2.0901-0.05972-2.4551-0.26172-0.183-0.1-0.28677-0.21266-0.38477-0.47266-0.097-0.26-0.16016-0.67362-0.16016-1.2656v-6c0-0.592 0.063157-1.0056 0.16016-1.2656 0.098-0.26 0.20177-0.37166 0.38477-0.47266 0.366-0.202 1.1961-0.24672 2.4551-0.26172zm0 12c-1.108 0-2 0.892-2 2h1 2 9c0-1.108-0.892-2-2-2z" fill="#808080" style="font-feature-settings:normal;font-variant-alternates:normal;font-variant-caps:normal;font-variant-ligatures:normal;font-variant-numeric:normal;font-variant-position:normal;isolation:auto;mix-blend-mode:normal;shape-padding:0;text-decoration-color:#000000;text-decoration-line:none;text-decoration-style:solid;text-indent:0;text-orientation:mixed;text-transform:none"/>
</svg>
